X:1
T:Ich liege und schlafe - Schütz
T:#
%%score 1 2
L:1/8
Q:1/4=120
M:4/4
K:C
V:1 bass nm="Bass"
V:2 bass nm="Continuo"
V:1
"^Ich liege und schlafe, SWV 310""^Heinrich Schütz\n(1585-1672)""^Psalm 3:5-8" A,8 | D,8 | %2
w: Ich|lie-|
 D,4 D,4 | (F,2 E,2 D,2 C,2 | B,,8) | A,,8 ||[M:3/2][Q:1/4=180] z4 F,,4 C,4 | F,8 E,4 | %8
w: ge und|schla\- * * *||fe,|und er-|wa- che,|
 z4 C,4 G,4 | C8 B,4 ||[M:4/4] x8 |[M:4/4][Q:1/4=180][Q:1/4=120][Q:1/4=180] z4 A,4 | F,4 E,4 | %13
w: und er-|wa- che,||denn|der Herr|
 G,8 | C,8 | z4 E,4 | A,,8 | A,,4 A,,4 | (C,2 B,,2 A,,2 G,,2 | F,,8) | E,,8 || %21
w: hält|mich,|ich|lie-|ge und|schla\- * * *||fe,|
[M:3/2][Q:1/4=180] z4 E,,4 A,,4 | D,8 ^C,4 |[M:3/2] z4 A,,4 E,4 | A,8 ^G,4 || %25
w: und er-|wa- che,|und er-|wa- che,|
[M:4/4][Q:1/4=120] z4 F,4 | D,4 ^C,4 | E,8 | A,,8 | z2 A,2 ^F,2 F,F, | %30
w: denn|der Herr|hält|mich.|Ich fürch- te mich|
 G,2 G,!courtesy!=F, G,F,E,D, |[M:4/4][Q:1/4=120][Q:1/4=120] C,2 C,B,, C,B,,A,,G,, | %32
w: nicht für viel Hun- dert- tau- sen-|den, für viel Hun- dert- tau- sen-|
 F,,2 C,D, E,F, G,2- | G,2 F,>E, E,4 | D,4 z2 D,2 | B,,2 B,,B,, C,2 E,D, | E,D,C,B,, A,,2 z A, | %37
w: den, die sich um- her wi\-|* der mich le-|gen, ich-|fürch- te mich nicht für viel|Hun- dert- tau- sen- den, ich|
 ^F,2 F,F, G,2 B,A, | B,A,G,=F, E,2 G,F, | G,F,E,D, C,2 A,,B,, | C,D,E,F, G,2 D,E, | %41
w: fürch- te mich nicht für viel|Hun- dert- tau- sen- den, für viel|Hun- dert- tau- sen- den, die sich|um- her wi- der mich, die sich|
 F,G, A,4 G,F, | (E,3 D,/C,/ B,,3 C, | D,3 C,/B,,/ A,,3 G,,/F,,/ | E,,8) | A,,8 | z2 E,4 C,C, | %47
w: um- her wi- der mich|le\- * * * *|||gen.|Auf! Herr, und|
 F,8 | E,8 | z2 C4 B,2 | A,8 | G,8 | A,G,F,E, F,E,D,C, | D,C,B,,A,, E,4 | E,4 z2 E,D, | %55
w: hilf|mir,|hilf mir,|mein|Gott,|denn du schlä- gest al- le mei- ne|Fein- de auf den Ba-|cken, und zer-|
 ^C,E,C,E, D,2 B,,2 | (D,E,/^F,/ E,F,/G,/ F,G,/A,/ G,2- | G,2 ^F,2) G,4 | z2 G,=F, E,G,E,G, | %59
w: schmet- terst der Gott- lo- sen|Zäh\- * * * * * * * * *|* * ne,|und zer- schmet- terst der Gott-|
 F,2 D,2 (E,^F,/^G,/ F,G,/A,/ | ^G,A,/B,/ A,4 G,2) | A,8 ||[M:3/2][Q:1/4=180] z4 A,4 E,4 | %63
w: lo- sen Zäh\- * * * * *||ne.|Bei dem|
 F,8 C,4 | z4 C4 G,4 | A,8 E,4 | F,4 G,4 A,4 | G,8 C,4 | F,,4 G,,4 A,,4 | %69
w: Her- ren,|bei dem|Her- ren|fin- det man|Hül- fe,|fin- det man|
[M:3/2][Q:1/4=180][Q:1/4=180] G,,8 C,4 | F,4 E,4 D,4 ||[M:4/4][Q:1/4=120] G,8 | C,8 | %73
w: Hül- fe,|fin- det man|Hül-|fe,|
 z2 G,2 A,2 G,2 | F,4 E,2 F,2- | F,A, G,2 C4 | (A,G,/F,/ E,F,/G,/ F,E,/D,/ C,D,/E,/ | %77
w: und dei- nen|Se- gen ü\-|* ber dein Volk,|Se\- * * * * * * * * * * *|
[M:4/4][Q:1/4=120][Q:1/4=120] D,C,/B,,/ A,,B,,/C,/ _B,,A,,/G,,/ F,,>G,, | A,,4) D,4 | %79
w: |* la,|
 z2 B,,2 C,2 B,,2 | A,,4 G,,2 C,2- | C,E, D,2 G,4 | (CB,/A,/ G,A,/B,/ A,G,/F,/ E,F,/G,/ | %83
w: und dei- nen|Se- gen ü\-|* ber dein Volk,|Se\- * * * * * * * * * * *|
 F,E,/D,/ C,D,/E,/ D,C,/B,,/ A,,/B,,/C,/A,,/ | E,2) E,2 (A,G,/F,/ E,F,/G,/ | %85
w: |* la, Se\- * * * * *|
[Q:1/4=119] F,[Q:1/4=118]E,/[Q:1/4=118]D,/[Q:1/4=117] ^C,[Q:1/4=117]D,/[Q:1/4=116]E,/[Q:1/4=116] D,>[Q:1/4=115]E,[Q:1/4=114] F,>[Q:1/4=113]G, | %86
w: |
[Q:1/4=112] A,3[Q:1/4=111] G,/[Q:1/4=110]F,/[Q:1/4=110] E,>[Q:1/4=109]F,[Q:1/4=108] =C,>[Q:1/4=107]D, | %87
w: |
[Q:1/4=106] E,4[Q:1/4=103] E,,4) |[Q:1/4=102] !fermata!A,,8 |] %89
w: |la.|
V:2
 A,8 | D,8 | D,4 D,4 | F,2 E,2 D,2 C,2 | x4- x4 | A,,8 ||[M:3/2] z4 F,,4 C,4 | F,8 E,4 | %8
w: ||||7||||
 z4 C,4 G,4 | C8 B,4 ||[M:4/4] x8 |[M:4/4] A,8 | F,4 E,4 | G,8 | C,8 | z4 E,4 | A,,8 | A,,4 A,,4 | %18
w: ||||* 6||||||
 C,2 B,,2 A,,2 G,,2 | x4- x4 | E,,8 ||[M:3/2] z4 E,,4 A,,4 | D,8 ^C,4 |[M:3/2] z4 A,,4 E,4 | %24
w: |7|||||
 A,8 ^G,4 ||[M:4/4] F,8 | D,4 ^C,4 | x4- x4 | A,,8 | A,4 ^F,4 | G,8 |[M:4/4] C,8 | F,,4 C,2 B,,2 | %33
w: |||4|||||* * 6|
 x2- x4 x2 | D,4 D,4 | B,,4 C,4 | C,2 B,,2 A,,2 A,2 | ^F,4 G,4 | G,2 =F,2 E,4 | E,2 D,2 C,4 | %40
w: |||||||
 C,4 G,,4 | D,4 A,,4 | E,4 B,,4 | D,4 A,,4 | x2- x4 x2 | A,,8 | z2 E,4 C,2 | F,8 | E,8 | C,8 | %50
w: ||||||||||
 x4- x4 | G,,8 | F,2 E,2 D,2 C,2 | B,,2 A,,2 E,4 | E,8 | ^C,4 D,2 B,,2 | D,4 (x2- x2 | %57
w: 4|||||* * 6||
 x2) x2 G,,4 | B,,4 C,4 | D,2 F,2 E,4 | x2- x4 x2 | A,,8 ||[M:3/2] A,8 E,4 | F,8 C,4 | C8 G,4 | %65
w: ||* 6 *||||||
 A,8 E,4 | F,4 G,4 A,4 | G,8 C,4 | F,,4 G,,4 A,,4 |[M:3/2] G,,8 C,4 | F,4 E,4 D,4 || %71
w: ||||||
[M:4/4] x4- x4 | C,8 | C,4 F,,2 E,,2 | F,,4 C,2 F,2- | F,A, G,2 C4 | A,2 E,2 F,2 C,2 | %77
w: 4||||||
[M:4/4] D,2 A,,2 _B,,2 F,,2 | x2- x2 D,4 | B,,4 C,2 B,,2 | x2- x2 G,,2 C,2- | C,E, D,2 G,4 | %82
w: |4 *|6 * *|7 * *||
 C2 G,2 A,2 E,2 | F,2 C,2 D,2 A,,2 | E,4 A,2 E,2 |"^Kieme geistliche Konzerte. 2/5" F,2 ^C,2 D,4 | %86
w: ||||
 A,4 E,2 =C,2 | x4- x4 | !fermata!A,,8 |] %89
w: * * 6|4||

